X: 17825
T: Hopak
R: slide
M: 12/8
K: Dmajor
|:aaa eee dcB cAF|EFA cde dcB cAF|1 a2a eee dcB cAF|
EFA cde dcB A3:|2 EFA cfe dcB cAF|EFA cde dcB A3||
|:ABd fff efg fff|efg a2a gfe fdB|ABd f2f efg f3|efg b2a gfe d3:|

